icon-themes/breeze_svg/cmd/sc_validation.svg

<svg viewBox="0 0 16 16" xmlns="http://www.w3.org/2000/svg"><path d="m2.65625 2-.65625.65625 3.34375 3.34375-3.34375 3.3125.65625.6875 3.375-3.34375 3.3125 3.3125.65625-.625-3.34375-3.34375 3.34375-3.3125-.65625-.6875-3.34375 3.34375z" fill="#da4453"/><path d="m14.273719 7-5.636719 5.560547-1.9104375-1.880898-.7265625.720702 1.9084843 1.878946.7285157.720703 1.0898437-1.080078 5.2734373-5.1992189z" fill="#27ae60"/></svg>

<svg viewBox="0 0 16 16" xmlns="http://www.w3.org/2000/svg">
  <path
     style="fill:#da4453"
     d="M 2.65625,2 2,2.65625 5.34375,6 2,9.3125 2.65625,10 6.03125,6.65625 9.34375,9.96875 10,9.34375 6.65625,6 10,2.6875 9.34375,2 6,5.34375 Z"
     />
  <path
     style="fill:#27ae60;fill-opacity:1"
     d="M 14.273719,7 8.637,12.560547 6.7265625,10.679649 6,11.400351 7.9084843,13.279297 8.637,14 9.7268437,12.919922 15.000281,7.7207031 Z"
     />
</svg>
